src/assets/img/larger-logo.svg

<svg width="209" height="45" viewBox="0 0 209 45" fill="none" xmlns="http://www.w3.org/2000/svg">
<path fill-rule="evenodd" clip-rule="evenodd" d="M20.0679 0.565399L36.8725 17.505C37.0502 17.6837 37.1913 17.8961 37.2876 18.1298C37.3838 18.3636 37.4335 18.6142 37.4336 18.8673V35.8085C37.4325 36.1767 37.3267 36.5368 37.1289 36.8462C36.931 37.1557 36.6494 37.4015 36.3173 37.5547L19.8875 44.9089C19.7637 44.968 19.6286 44.9993 19.4915 45.0006C19.3657 45.0003 19.2412 44.975 19.1251 44.9261C19.009 44.8773 18.9036 44.8059 18.8149 44.716C18.7262 44.6261 18.6559 44.5194 18.608 44.4021C18.5602 44.2849 18.5358 44.1592 18.5361 44.0324V39.661C18.5361 39.149 18.3343 38.658 17.9752 38.2959C17.616 37.9339 17.1289 37.7305 16.621 37.7305H1.9109C1.40437 37.7296 0.918844 37.5264 0.560673 37.1653C0.202502 36.8043 0.000890995 36.3149 0 35.8043V18.8639C0.000713425 18.3539 0.202241 17.8652 0.560295 17.505L17.3649 0.565399C17.5424 0.386459 17.7531 0.244513 17.985 0.147668C18.2169 0.0508226 18.4654 0.000976562 18.7164 0.000976562C18.9674 0.000976562 19.2159 0.0508226 19.4478 0.147668C19.6797 0.244513 19.8904 0.386459 20.0679 0.565399ZM80.3456 10.6015C73.2294 10.6015 67.9828 15.6591 67.9828 22.5012C67.9828 29.3458 73.2319 34.4001 80.3472 34.4001C87.4626 34.4001 92.7091 29.3739 92.7091 22.5012C92.7091 15.6286 87.4617 10.6015 80.3456 10.6015ZM80.3464 14.3699C84.9695 14.3699 88.4121 17.7739 88.4121 22.5012C88.4121 27.2302 84.9703 30.6325 80.3464 30.6325C75.7225 30.6325 72.2798 27.2285 72.2798 22.5012C72.2798 17.7739 75.7233 14.3699 80.3464 14.3699ZM65.9893 22.2388H61.956L61.9518 29.4461C60.479 30.3047 58.8723 30.6351 57.2335 30.6351C52.3805 30.6351 48.937 27.1971 48.937 22.5038C48.937 17.7111 52.3788 14.3724 57.2656 14.3724C59.7249 14.3724 61.7909 15.1988 63.5948 17.0164L66.2833 14.3724C64.1188 11.8933 60.9054 10.604 57.0692 10.604C49.8882 10.604 44.6425 15.5955 44.6425 22.5038C44.6425 29.4121 49.889 34.4027 57.0044 34.4027C60.2507 34.4027 63.5956 33.4149 65.9893 31.4615V22.2388ZM94.7017 22.5012C94.7017 15.6591 99.9483 10.6015 107.064 10.6015C114.179 10.6015 119.426 15.6286 119.426 22.5012C119.426 29.3739 114.18 34.4001 107.064 34.4001C99.9474 34.4001 94.7017 29.3458 94.7017 22.5012ZM115.13 22.5012C115.13 17.7739 111.688 14.3699 107.064 14.3699C102.44 14.3699 98.9979 17.7739 98.9979 22.5012C98.9979 27.2285 102.441 30.6325 107.064 30.6325C111.687 30.6325 115.13 27.2302 115.13 22.5012ZM141.816 34.0723V10.9344H137.554V20.4875H125.684V10.9344H121.421V34.0723H125.684V24.1565H137.554V34.0723H141.816ZM161.945 28.7173H150.468L148.205 34.068H143.811L154.14 10.9302H158.338L168.701 34.068H164.242L161.945 28.7173ZM160.534 25.3464L156.206 15.232L151.909 25.3464H160.534ZM168.699 10.9344V23.9909C168.699 30.7336 172.471 34.4026 178.766 34.4026C185.029 34.4026 188.8 30.7336 188.8 23.9909V10.9344H184.603V23.8253C184.603 28.5857 182.505 30.6351 178.799 30.6351C175.094 30.6351 172.962 28.5815 172.962 23.8253V10.9344H168.699ZM190.307 31.6262L191.782 28.2876C193.619 29.7756 196.536 30.8355 199.357 30.8355C202.931 30.8355 204.44 29.5463 204.44 27.8281C204.44 25.6693 201.888 25.0563 198.992 24.3606C195.192 23.4476 190.799 22.3922 190.799 17.5149C190.799 13.7779 193.748 10.6066 200.045 10.6066C202.8 10.6066 205.685 11.3336 207.686 12.656L206.338 15.9946C204.275 14.7725 202.013 14.1779 200.013 14.1779C196.474 14.1779 195.028 15.5666 195.028 17.3204C195.028 19.4499 197.571 20.0594 200.459 20.7513C204.251 21.66 208.636 22.7109 208.636 27.5334C208.636 31.2355 205.653 34.4128 199.357 34.4128C195.782 34.4026 192.208 33.279 190.307 31.6262Z" fill="white"/>
</svg>

<svg xmlns="http://www.w3.org/2000/svg" width="209" height="45" fill="none"><path fill="#fff" fill-rule="evenodd" d="m20.068.565 16.805 16.94a1.928 1.928 0 0 1 .56 1.362V35.81a1.938 1.938 0 0 1-.304 1.037c-.198.31-.48.556-.812.709l-16.43 7.354a.94.94 0 0 1-.396.092.95.95 0 0 1-.676-.285.968.968 0 0 1-.279-.684v-4.371c0-.512-.202-1.003-.56-1.365a1.908 1.908 0 0 0-1.355-.566H1.911c-.507 0-.992-.204-1.35-.565A1.937 1.937 0 0 1 0 35.805V18.863c0-.51.202-.999.56-1.359L17.365.565a1.91 1.91 0 0 1 1.351-.564 1.898 1.898 0 0 1 1.352.564Zm60.278 10.037c-7.117 0-12.363 5.057-12.363 11.9 0 6.844 5.249 11.898 12.364 11.898 7.116 0 12.362-5.026 12.362-11.899 0-6.872-5.247-11.9-12.363-11.9Zm0 3.768c4.623 0 8.066 3.404 8.066 8.131 0 4.73-3.442 8.131-8.066 8.131-4.624 0-8.066-3.404-8.066-8.13 0-4.728 3.443-8.132 8.066-8.132ZM65.99 22.239h-4.033l-.004 7.207c-1.473.859-3.08 1.19-4.718 1.19-4.854 0-8.297-3.439-8.297-8.132 0-4.793 3.442-8.132 8.329-8.132 2.459 0 4.525.827 6.329 2.644l2.688-2.644c-2.164-2.479-5.378-3.768-9.214-3.768-7.18 0-12.427 4.992-12.427 11.9s5.247 11.899 12.362 11.899c3.247 0 6.592-.988 8.985-2.941v-9.223Zm28.713.262c0-6.842 5.246-11.9 12.362-11.9 7.115 0 12.362 5.028 12.362 11.9 0 6.873-5.246 11.9-12.362 11.9-7.117 0-12.362-5.055-12.362-11.9Zm20.428 0c0-4.727-3.442-8.131-8.066-8.131-4.624 0-8.066 3.404-8.066 8.131s3.443 8.131 8.066 8.131c4.623 0 8.066-3.402 8.066-8.13Zm26.686 11.571V10.934h-4.262v9.554h-11.87v-9.554h-4.263v23.138h4.263v-9.916h11.87v9.916h4.262Zm20.129-5.355h-11.477l-2.263 5.351h-4.394L154.14 10.93h4.198l10.363 23.138h-4.459l-2.297-5.35Zm-1.411-3.37-4.328-10.115-4.297 10.114h8.625Zm8.165-14.413v13.057c0 6.743 3.772 10.412 10.067 10.412 6.263 0 10.034-3.67 10.034-10.412V10.934h-4.197v12.891c0 4.76-2.098 6.81-5.804 6.81-3.705 0-5.837-2.054-5.837-6.81v-12.89H168.7Zm21.608 20.692 1.475-3.338c1.837 1.488 4.754 2.547 7.575 2.547 3.574 0 5.083-1.289 5.083-3.007 0-2.159-2.552-2.772-5.448-3.467-3.8-.913-8.193-1.969-8.193-6.846 0-3.737 2.949-6.908 9.246-6.908 2.755 0 5.64.727 7.641 2.049l-1.348 3.339c-2.063-1.222-4.325-1.817-6.325-1.817-3.539 0-4.985 1.389-4.985 3.142 0 2.13 2.543 2.74 5.431 3.431 3.792.909 8.177 1.96 8.177 6.782 0 3.702-2.983 6.88-9.279 6.88-3.575-.01-7.149-1.134-9.05-2.787Z" clip-rule="evenodd"/></svg>
